X: 37996
T: Speed The Plough
R: reel
M: 4/4
K: Amajor
zE|A2Ac efec|efae faec|dfdB cecA|FBBA GEFG|
A2Ac efec|ea~a2 ecAc|dece BeAe|GABG A2:|
|:ce|a2ag aAce|aAgA fAeA|dfdB cecA|FBBA GABd|

